icons/tongue_fill.svg

<svg width="48" height="48" viewBox="0 0 48 48" fill="none" xmlns="http://www.w3.org/2000/svg">
<path d="M20 22C20 24.2091 18.8807 26 17.5 26C16.1193 26 15 24.2091 15 22C15 19.7909 16.1193 18 17.5 18C18.8807 18 20 19.7909 20 22Z" fill="black"/>
<path d="M30.5 26C31.8807 26 33 24.2091 33 22C33 19.7909 31.8807 18 30.5 18C29.1193 18 28 19.7909 28 22C28 24.2091 29.1193 26 30.5 26Z" fill="black"/>
<path fill-rule="evenodd" clip-rule="evenodd" d="M27.8737 41.5821C29.0098 41.333 30.1058 40.9765 31.1504 40.5238L31.1926 40.5055C33.3809 39.5505 35.3426 38.1731 36.9746 36.4764C37.3326 36.1042 37.6748 35.7166 38 35.3147C38.6171 34.5521 39.1731 33.7381 39.6606 32.8802C39.8985 32.4615 40.1201 32.0324 40.3245 31.5937L40.3263 31.59C41.4003 29.2837 42 26.7119 42 24C42 14.0589 33.9411 6 24 6C14.0589 6 6 14.0589 6 24C6 31.333 10.385 37.6419 16.676 40.4475C16.7197 40.467 16.7635 40.4863 16.8074 40.5055C17.8647 40.9668 18.9749 41.3296 20.1263 41.5821C21.1716 42.4667 22.5235 43 24 43C25.4765 43 26.8284 42.4667 27.8737 41.5821ZM8 24C8 30.8399 12.2919 36.6773 18.3296 38.9661C18.116 38.3502 18 37.6886 18 37V34.8779C17.0801 34.4259 16.4423 33.8864 16 33.3557L15.9749 33.3253C15 32.1361 15 31 15 31C15 31 14.6269 29.5074 16.137 29.1011C16.1564 29.0959 16.1762 29.0908 16.1963 29.0859C16.4219 29.0312 16.6875 29 17 29H31.5C31.6191 29 31.7311 29.0071 31.8364 29.0204L31.8521 29.0225C33.5 29.2422 33.5 31 33.5 31C33.5 31 33.3668 32.3323 32 33.6214C31.9737 33.6462 31.9469 33.671 31.9196 33.6958C31.439 34.1331 30.8135 34.5623 30 34.9295V37C30 37.6886 29.884 38.3502 29.6705 38.9661C32.5448 37.8765 35.0235 35.9825 36.8318 33.5591L36.85 33.5347C36.8845 33.4882 36.9188 33.4416 36.9528 33.3948C38.6361 31.0779 39.713 28.292 39.9503 25.2701C39.9832 24.8511 40 24.4275 40 24C40 15.1634 32.8366 8 24 8C15.1634 8 8 15.1634 8 24ZM24 36C23.4477 36 23 35.5523 23 35V31H20V37C20 39.2091 21.7909 41 24 41C26.2091 41 28 39.2091 28 37V31H25V35C25 35.5523 24.5523 36 24 36Z" fill="black"/>
</svg>

<svg
  xmlns="http://www.w3.org/2000/svg"
  width="24"
  height="24"
  viewBox="0 0 24 24"
  fill="none"
  stroke="currentColor"
  stroke-width="2"
  stroke-linecap="round"
  stroke-linejoin="round"
>
  <path d="M20 22c0 2.21-1.12 4-2.5 4S15 24.21 15 22s1.12-4 2.5-4 2.5 1.79 2.5 4" />
  <path d="M30.5 26c1.38 0 2.5-1.79 2.5-4s-1.12-4-2.5-4-2.5 1.79-2.5 4 1.12 4 2.5 4" />
  <path
    fill-rule="evenodd"
    d="M27.874 41.582a18 18 0 0 0 3.276-1.058l.043-.019A18.04 18.04 0 0 0 38 35.316a18 18 0 0 0 2.325-3.721l.001-.004A17.9 17.9 0 0 0 42 24c0-9.941-8.059-18-18-18S6 14.059 6 24c0 7.333 4.385 13.642 10.676 16.447l.131.058c1.058.462 2.168.825 3.32 1.077A5.98 5.98 0 0 0 24 43a5.98 5.98 0 0 0 3.874-1.418M8 24c0 6.84 4.292 12.677 10.33 14.966A6 6 0 0 1 18 37v-2.122c-.92-.452-1.558-.992-2-1.522l-.025-.03C15 32.135 15 31 15 31s-.373-1.493 1.137-1.899l.06-.015c.225-.055.49-.086.803-.086h14.5q.18 0 .336.02l.016.003C33.5 29.243 33.5 31 33.5 31s-.133 1.332-1.5 2.621l-.08.075A7.3 7.3 0 0 1 30 34.929V37c0 .689-.116 1.35-.33 1.966a16.05 16.05 0 0 0 7.162-5.407l.018-.024.103-.14A15.9 15.9 0 0 0 40 24c0-8.837-7.163-16-16-16S8 15.163 8 24m16 12a1 1 0 0 1-1-1v-4h-3v6a4 4 0 0 0 8 0v-6h-3v4a1 1 0 0 1-1 1"
    clip-rule="evenodd"
  />
</svg>
